X:1
T:Kingsfold, CMD
T:Ralph Vaughn Williams, 1906
T:Kingsfold, CMD
T:Public Domain
C:Ralph Vaughn Williams, 1906
Z:Public Domain
%%score ( 1 2 ) ( 3 4 )
L:1/8
M:4/4
K:G
V:1 treble 
V:2 treble 
V:3 bass 
V:4 bass 
V:1
 (GF) | [B,E]2 [B,E]2 [CE]2 [A,D]2 | [DG]2 [B,G]2 [DA]2 ([DG][FA]) | [GB]2 [GB]2 (AG) [CE]2 | %4
 [A,D]6 (GF) | E2 [CE]2 (CB,) [A,D]2 | [DG]2 [^CG]2 [DA]2 ([EG][=CA]) | [B,B]2 [DB]2 (AG) [CE]2 | %8
 [B,E]6 (Bc) | [Fd]2 [FB]2 ([GB][DA]) [DG]2 | [EA]2 [DA]2 [DB]4 | [GB]2 ([GB][FA]) [DG]2 (CB,) | %12
 [A,D]6 (GF) | [DE]2 [CE]2 (ED)(EF) | [DG]2 (D^C) [DA]2 ([DG][=CA]) | [B,B]2 [DB]2 (AG) [CE]2 | %16
 [B,E]6 |] %17
V:2
 E2 | x8 | x8 | x4 E2 x2 | x6 D2 | E2 E2 x4 | x8 | x4 C2 x2 | x6 E2 | x8 | x8 | x6 E2 | x6 D2 | %13
 x4 C2 D2 | x2 G2 x4 | x4 E2 x2 | x6 |] %17
V:3
 (B,A,) | [E,G,]2 (E,D,) [C,G,]2 [C,F,]2 | [B,,G,]2 [E,G,]2 [D,F,]2 ([B,,G,][A,,C]) | %3
 [G,,B,]2 [G,,D]2 [A,,C]2 [A,,G,]2 | (G,4 F,2) [B,,G,]2 | [C,G,]2 (C,B,,) [A,,G,]2 [D,F,]2 | %6
 [B,,G,]2 [E,G,]2 (D,C,)([B,,G,][A,,F,]) | [G,,G,]2 [B,,G,]2 [C,E,]2 (E,F,) | [E,G,]6 [E,G,]2 | %9
 [B,,B,]2 [B,D]2 ([E,D][F,C]) [G,B,]2 | (A,G,) [D,F,]2 [G,,G,]4 | %11
 [G,,D]2 ([G,,D][A,,C]) [B,,B,]2 [C,G,]2 | (G,4 F,2) [B,,G,]2 | [C,G,]2 (B,,A,,) [A,,A,]2 [A,C]2 | %14
 ([G,B,][F,A,]) [E,G,]2 [D,F,]2 ([B,,G,][A,,F,]) | [G,,G,]2 [B,,F,]2 [C,E,]2 (E,F,) | [E,,E,G,]6 |] %17
V:4
 E,2 | x2 G,2 x4 | x8 | x8 | D,6 x2 | x2 G,2 x4 | x4 F,2 x2 | x6 A,,2 | x8 | x8 | C,2 x6 | x8 | %12
 D,6 x2 | x2 G,2 x4 | x8 | x6 A,,2 | x6 |] %17

